X: 19369
T: Jack's Mazurka
R: waltz
M: 3/4
K: Gmajor
|Bc|d2 dBGB|B2 A2 AB|c2 cAFA|A2 G2 Bc|
d2 dBGB|B2 A2 AB|c2 cAFA|G2 G2:|
BG|E2 E2 AF|D2 D2 AB|c2 cAFA|B2 G2 BG|
E2 E2 AF|D2 D2 AB|c2 cAFA|G2 G2:|

